build/img/logo-icon__mobile.svg

<svg width="52" height="52" viewBox="0 0 52 52" fill="none" xmlns="http://www.w3.org/2000/svg">
<path fill-rule="evenodd" clip-rule="evenodd" d="M7.97819 7.97262L26 0.507744L44.0218 7.97262L51.489 26L44.0218 44.0274L26 51.4923L7.97819 44.0274L0.511004 26L7.97819 7.97262ZM26 0L44.3848 7.61522L52 26L44.3848 44.3848L26 52L7.61522 44.3848L0 26L7.61522 7.61522L26 0ZM22.5075 20.8131C22.0196 20.7119 21.4183 20.6613 20.7036 20.6613C19.535 20.6613 18.4799 20.8862 17.5382 21.3359C16.6079 21.7857 15.8761 22.4209 15.3428 23.2417C14.8096 24.0512 14.543 24.9844 14.543 26.0412C14.543 27.1318 14.8039 28.0987 15.3258 28.942C15.8477 29.7852 16.5738 30.443 17.5041 30.9152C18.4458 31.3761 19.5123 31.6066 20.7036 31.6066C21.3729 31.6066 21.9629 31.5504 22.4735 31.438C22.9953 31.3255 23.5513 31.1288 24.1412 30.8477C24.2093 30.8027 24.2547 30.7634 24.2774 30.7297C24.3001 30.6959 24.3171 30.6116 24.3284 30.4767L24.4986 28.6216C24.4986 28.5878 24.4589 28.571 24.3795 28.571C24.3228 28.571 24.2944 28.5822 24.2944 28.6047C23.9881 29.5266 23.5456 30.2125 22.967 30.6622C22.3884 31.1119 21.6339 31.3368 20.7036 31.3368C19.83 31.3368 19.0188 31.1007 18.27 30.6285C17.5325 30.1563 16.9425 29.5154 16.5001 28.7059C16.0689 27.8851 15.8534 26.9857 15.8534 26.0075C15.8534 24.9844 16.0519 24.0905 16.449 23.326C16.8461 22.5502 17.4077 21.9543 18.1338 21.5383C18.8599 21.1223 19.6995 20.9143 20.6525 20.9143C22.4678 20.9143 23.6364 21.8531 24.1583 23.7307C24.1696 23.7645 24.2036 23.7813 24.2604 23.7813C24.3284 23.7701 24.3625 23.7476 24.3625 23.7139L24.1583 21.707C24.1356 21.572 24.1185 21.4877 24.1072 21.454C24.0959 21.4203 24.0505 21.3809 23.9711 21.3359C23.4832 21.0886 22.9953 20.9143 22.5075 20.8131ZM37.714 31.2862C37.714 31.2187 37.697 31.185 37.663 31.185C37.2318 31.185 36.9142 31.1569 36.71 31.1007C36.5057 31.0445 36.3639 30.9377 36.2845 30.7803C36.2164 30.6116 36.1824 30.3586 36.1824 30.0213V22.2129C36.1824 21.8756 36.2164 21.6283 36.2845 21.4708C36.3639 21.3134 36.5057 21.2066 36.71 21.1504C36.9142 21.083 37.2318 21.0492 37.663 21.0492C37.697 21.0492 37.714 21.0155 37.714 20.948C37.714 20.8806 37.697 20.8468 37.663 20.8468L36.8291 20.8637C36.3526 20.8862 35.9612 20.8974 35.6548 20.8974C35.3145 20.8974 34.8947 20.8862 34.3955 20.8637L33.5956 20.8468C33.5616 20.8468 33.5446 20.8806 33.5446 20.948C33.5446 21.0155 33.5616 21.0492 33.5956 21.0492C34.0381 21.0492 34.3615 21.083 34.5657 21.1504C34.7699 21.2179 34.906 21.3359 34.9741 21.5046C35.0535 21.662 35.0932 21.9093 35.0932 22.2466V25.7208H28.5583V22.2466C28.5583 21.9093 28.5923 21.662 28.6604 21.5046C28.7398 21.3359 28.8816 21.2179 29.0858 21.1504C29.3014 21.083 29.6247 21.0492 30.0559 21.0492C30.0785 21.0492 30.0899 21.0155 30.0899 20.948C30.0899 20.8806 30.0785 20.8468 30.0559 20.8468L29.239 20.8637C28.7398 20.8862 28.3257 20.8974 27.9967 20.8974C27.713 20.8974 27.3329 20.8862 26.8564 20.8637L25.9885 20.8468C25.9658 20.8468 25.9545 20.8806 25.9545 20.948C25.9545 21.0155 25.9658 21.0492 25.9885 21.0492C26.4196 21.0492 26.7373 21.083 26.9415 21.1504C27.1457 21.2066 27.2819 21.3134 27.35 21.4708C27.4294 21.6283 27.4691 21.8756 27.4691 22.2129V30.0213C27.4691 30.3586 27.4294 30.6116 27.35 30.7803C27.2819 30.9377 27.1401 31.0445 26.9245 31.1007C26.7203 31.1569 26.4026 31.185 25.9715 31.185C25.9488 31.185 25.9375 31.2187 25.9375 31.2862C25.9375 31.3537 25.9488 31.3874 25.9715 31.3874C26.3345 31.3874 26.6182 31.3818 26.8224 31.3705L27.9967 31.3537L29.222 31.3705C29.4262 31.3818 29.7041 31.3874 30.0559 31.3874C30.0785 31.3874 30.0899 31.3537 30.0899 31.2862C30.0899 31.2187 30.0785 31.185 30.0559 31.185C29.6134 31.185 29.29 31.1569 29.0858 31.1007C28.8816 31.0445 28.7398 30.9377 28.6604 30.7803C28.5923 30.6116 28.5583 30.3586 28.5583 30.0213V26.075H35.0932V30.0213C35.0932 30.3586 35.0535 30.6116 34.9741 30.7803C34.906 30.9377 34.7699 31.0445 34.5657 31.1007C34.3615 31.1569 34.0381 31.185 33.5956 31.185C33.5616 31.185 33.5446 31.2187 33.5446 31.2862C33.5446 31.3537 33.5616 31.3874 33.5956 31.3874C33.936 31.3874 34.2026 31.3818 34.3955 31.3705L35.6548 31.3537L36.8291 31.3705C37.0333 31.3818 37.3113 31.3874 37.663 31.3874C37.697 31.3874 37.714 31.3537 37.714 31.2862Z" fill="#A87B62"/>
</svg>

<svg width="52" height="52" fill="none" xmlns="http://www.w3.org/2000/svg"><path fill-rule="evenodd" clip-rule="evenodd" d="M7.978 7.973L26 .508l18.022 7.465L51.489 26l-7.467 18.027L26 51.492 7.978 44.027.511 26 7.978 7.973zM26 0l18.385 7.615L52 26l-7.615 18.385L26 52 7.615 44.385 0 26 7.615 7.615 26 0zm-3.492 20.813c-.488-.101-1.09-.152-1.804-.152-1.169 0-2.224.225-3.166.675-.93.45-1.662 1.085-2.195 1.906-.533.81-.8 1.742-.8 2.8 0 1.09.26 2.057.783 2.9.522.843 1.248 1.501 2.178 1.973.942.461 2.008.692 3.2.692.669 0 1.259-.057 1.77-.169a7.664 7.664 0 001.667-.59.5.5 0 00.136-.118c.023-.034.04-.118.051-.253l.17-1.855c0-.034-.04-.051-.119-.051-.056 0-.085.011-.085.034-.306.922-.748 1.607-1.327 2.057-.579.45-1.333.675-2.263.675a4.477 4.477 0 01-2.434-.709 5.191 5.191 0 01-1.77-1.922 5.713 5.713 0 01-.647-2.698c0-1.024.199-1.918.596-2.682a4.228 4.228 0 011.685-1.788c.726-.416 1.566-.624 2.518-.624 1.816 0 2.984.94 3.506 2.817.012.034.046.05.102.05.068-.01.102-.033.102-.067l-.204-2.007a2.285 2.285 0 00-.05-.253c-.012-.034-.058-.073-.137-.118a5.876 5.876 0 00-1.463-.523zm15.206 10.473c0-.067-.017-.101-.051-.101-.431 0-.749-.028-.953-.084-.204-.056-.346-.163-.425-.32-.069-.17-.103-.422-.103-.76v-7.808c0-.337.034-.585.102-.742.08-.158.222-.264.426-.32.204-.068.522-.102.953-.102.034 0 .051-.034.051-.101s-.017-.101-.051-.101l-.834.017c-.476.022-.868.033-1.174.033-.34 0-.76-.01-1.26-.033l-.8-.017c-.033 0-.05.034-.05.101s.017.101.05.101c.443 0 .767.034.97.101.205.068.341.186.41.355.078.157.118.404.118.742v3.474h-6.535v-3.474c0-.338.034-.585.102-.742a.676.676 0 01.426-.355c.215-.067.539-.1.97-.1.022 0 .034-.035.034-.102 0-.067-.012-.101-.034-.101l-.817.017c-.5.022-.913.033-1.242.033-.284 0-.664-.01-1.14-.033l-.869-.017c-.022 0-.034.034-.034.101s.012.101.034.101c.432 0 .75.034.954.101.204.057.34.163.408.32.08.158.12.406.12.743v7.808c0 .338-.04.59-.12.76-.068.157-.21.264-.426.32-.204.056-.521.084-.953.084-.022 0-.034.034-.034.101 0 .068.012.101.034.101.363 0 .647-.005.851-.017l1.175-.016 1.225.017c.204.01.482.016.834.016.022 0 .034-.033.034-.1 0-.068-.012-.102-.034-.102-.443 0-.766-.028-.97-.084-.204-.056-.346-.163-.426-.32-.068-.17-.102-.422-.102-.76v-3.946h6.535v3.946c0 .338-.04.59-.119.76-.068.157-.204.264-.408.32-.205.056-.528.084-.97.084-.034 0-.051.034-.051.101 0 .068.017.101.05.101.341 0 .608-.005.8-.017l1.26-.016 1.174.017c.204.01.482.016.834.016.034 0 .051-.033.051-.1z" fill="#A87B62"/></svg>
